utils/icon设计资源/icons/dice-5-fill.svg

<svg width="1em" height="1em" viewBox="0 0 16 16" class="bi bi-dice-5-fill" fill="currentColor" xmlns="http://www.w3.org/2000/svg">
  <path fill-rule="evenodd" d="M3 0a3 3 0 0 0-3 3v10a3 3 0 0 0 3 3h10a3 3 0 0 0 3-3V3a3 3 0 0 0-3-3H3zm2.5 4a1.5 1.5 0 1 1-3 0 1.5 1.5 0 0 1 3 0zm8 0a1.5 1.5 0 1 1-3 0 1.5 1.5 0 0 1 3 0zM12 13.5a1.5 1.5 0 1 0 0-3 1.5 1.5 0 0 0 0 3zM5.5 12a1.5 1.5 0 1 1-3 0 1.5 1.5 0 0 1 3 0zM8 9.5a1.5 1.5 0 1 0 0-3 1.5 1.5 0 0 0 0 3z"/>
</svg>

<?xml version="1.0" encoding="UTF-8" standalone="no"?>
<svg
   xmlns:dc="http://purl.org/dc/elements/1.1/"
   xmlns:cc="http://creativecommons.org/ns#"
   xmlns:rdf="http://www.w3.org/1999/02/22-rdf-syntax-ns#"
   xmlns:svg="http://www.w3.org/2000/svg"
   xmlns="http://www.w3.org/2000/svg"
   xmlns:sodipodi="http://sodipodi.sourceforge.net/DTD/sodipodi-0.dtd"
   xmlns:inkscape="http://www.inkscape.org/namespaces/inkscape"
   inkscape:version="1.0 (4035a4fb49, 2020-05-01)"
   sodipodi:docname="dice-5-fill.svg"
   id="svg1418"
   version="1.1"
   fill="currentColor"
   class="bi bi-dice-5-fill"
   viewBox="0 0 16 16"
   height="1em"
   width="1em">
  <metadata
     id="metadata1424">
    <rdf:RDF>
      <cc:Work
         rdf:about="">
        <dc:format>image/svg+xml</dc:format>
        <dc:type
           rdf:resource="http://purl.org/dc/dcmitype/StillImage" />
      </cc:Work>
    </rdf:RDF>
  </metadata>
  <defs
     id="defs1422" />
  <sodipodi:namedview
     inkscape:current-layer="svg1418"
     inkscape:window-maximized="1"
     inkscape:window-y="-9"
     inkscape:window-x="-9"
     inkscape:cy="8"
     inkscape:cx="8"
     inkscape:zoom="51.875"
     showgrid="false"
     id="namedview1420"
     inkscape:window-height="1001"
     inkscape:window-width="1920"
     inkscape:pageshadow="2"
     inkscape:pageopacity="0"
     guidetolerance="10"
     gridtolerance="10"
     objecttolerance="10"
     borderopacity="1"
     bordercolor="#666666"
     pagecolor="#ffffff" />
  <path
     d="M 3 0 A 3 3 0 0 0 0 3 L 0 13 A 3 3 0 0 0 3 16 L 13 16 A 3 3 0 0 0 16 13 L 16 3 A 3 3 0 0 0 13 0 L 3 0 z M 4.0117188 2.5 A 1.5 1.5 0 0 1 5.5 4 A 1.5 1.5 0 0 1 2.5 4 A 1.5 1.5 0 0 1 4.0117188 2.5 z M 12.011719 2.5 A 1.5 1.5 0 0 1 13.5 4 A 1.5 1.5 0 0 1 10.5 4 A 1.5 1.5 0 0 1 12.011719 2.5 z M 8 6.5 A 1.5 1.5 0 0 1 8 9.5 A 1.5 1.5 0 0 1 8 6.5 z M 4.0117188 10.5 A 1.5 1.5 0 0 1 5.5 12 A 1.5 1.5 0 0 1 2.5 12 A 1.5 1.5 0 0 1 4.0117188 10.5 z M 12 10.5 A 1.5 1.5 0 0 1 12 13.5 A 1.5 1.5 0 0 1 12 10.5 z "
     style="fill:#000000;fill-opacity:1;fill-rule:evenodd"
     id="path1416" />
</svg>
